Modules/BetterCms.Module.Root/Scss/base_64/icons/cp-drag-handle.svg

<svg xmlns="http://www.w3.org/2000/svg" preserveAspectRatio="xMidYMid" width="30" height="10" viewBox="0 0 30 10">
  <path fill="#a0a0a0" fill-rule="evenodd" d="M-0.000,10.000 L-0.000,9.000 L30.000,9.000 L30.000,10.000 L-0.000,10.000 ZM-0.000,6.000 L30.000,6.000 L30.000,7.000 L-0.000,7.000 L-0.000,6.000 ZM-0.000,3.000 L30.000,3.000 L30.000,4.000 L-0.000,4.000 L-0.000,3.000 ZM-0.000,-0.000 L30.000,-0.000 L30.000,1.000 L-0.000,1.000 L-0.000,-0.000 Z"/>
</svg>

<svg xmlns="http://www.w3.org/2000/svg" width="30" height="10" viewBox="0 0 30 10">
 <path fill="#a0a0a0" fill-rule="evenodd" d="m0 10v-1h30v1h-30m0-4h30v1h-30v-1m0-3h30v1h-30v-1m0-3h30v1h-30v-1"/>
</svg>
